X: 1
T: Shove The Pig's Foot Further The Fire
R: Reel
M: 4/4
L: 1/8
K: G
| GA |: BcBA G2EF | GAGE D4 | EFGA B3 c | B2 A4 GA |
BcBA G2EF | GAGE D4 | EFGA B3F | [1 A2 G4 GA :| [2 A2 G6 ||
|: Bd2 Bd2 d2 | edBc d2 z2 | Bd2 d g3g | e2 d6 |
Bd2 Bd2 d2 | edBc d2 z2 | B3 c BAGB | A2 G6 :|